cookie-law-info/lite/admin/dist/img/external.svg

<svg width="11" height="11" viewBox="0 0 11 11" fill="inherit" xmlns="http://www.w3.org/2000/svg">
<mask id="path-1-inside-1_4567_9698" fill="inherit">
<path d="M10.2583 0.295591C10.2421 0.296101 10.226 0.297514 10.21 0.299822H7.66673C7.60931 0.29901 7.5523 0.309619 7.49901 0.331032C7.44573 0.352444 7.39723 0.384234 7.35633 0.424553C7.31544 0.464872 7.28297 0.512917 7.2608 0.565895C7.23864 0.618873 7.22723 0.675728 7.22723 0.733156C7.22723 0.790583 7.23864 0.847438 7.2608 0.900416C7.28297 0.953395 7.31544 1.00144 7.35633 1.04176C7.39723 1.08208 7.44573 1.11387 7.49901 1.13528C7.5523 1.15669 7.60931 1.1673 7.66673 1.16649H9.22064L4.76035 5.62678C4.71876 5.66671 4.68556 5.71453 4.66269 5.76746C4.63981 5.82038 4.62773 5.87733 4.62714 5.93498C4.62655 5.99263 4.63748 6.04982 4.65927 6.1032C4.68106 6.15658 4.71328 6.20507 4.75405 6.24584C4.79482 6.28661 4.84331 6.31883 4.89669 6.34062C4.95007 6.36241 5.00725 6.37334 5.06491 6.37275C5.12256 6.37216 5.17951 6.36008 5.23243 6.3372C5.28536 6.31433 5.33318 6.28113 5.37311 6.23954L9.8334 1.77925V3.33316C9.83259 3.39058 9.84319 3.44759 9.86461 3.50088C9.88602 3.55416 9.91781 3.60266 9.95813 3.64355C9.99845 3.68445 10.0465 3.71692 10.0995 3.73908C10.1524 3.76125 10.2093 3.77266 10.2667 3.77266C10.3242 3.77266 10.381 3.76125 10.434 3.73908C10.487 3.71692 10.535 3.68445 10.5753 3.64355C10.6157 3.60266 10.6474 3.55416 10.6689 3.50088C10.6903 3.44759 10.7009 3.39058 10.7001 3.33316V0.788169C10.7087 0.72578 10.7036 0.662259 10.6852 0.602031C10.6668 0.541802 10.6355 0.486312 10.5934 0.439425C10.5513 0.392538 10.4996 0.35538 10.4417 0.33054C10.3838 0.3057 10.3212 0.293773 10.2583 0.295591ZM1.60007 2.03316C1.1264 2.03316 0.733398 2.42616 0.733398 2.89982V9.39982C0.733398 9.87348 1.1264 10.2665 1.60007 10.2665H8.10007C8.57373 10.2665 8.96673 9.87348 8.96673 9.39982V5.06649V3.9493L8.10007 4.81597V5.93316V9.39982H1.60007V2.89982H5.06673H5.9334H6.18392L7.05059 2.03316H5.9334H5.06673H1.60007Z"/>
</mask>
<path d="M10.2583 0.295591C10.2421 0.296101 10.226 0.297514 10.21 0.299822H7.66673C7.60931 0.29901 7.5523 0.309619 7.49901 0.331032C7.44573 0.352444 7.39723 0.384234 7.35633 0.424553C7.31544 0.464872 7.28297 0.512917 7.2608 0.565895C7.23864 0.618873 7.22723 0.675728 7.22723 0.733156C7.22723 0.790583 7.23864 0.847438 7.2608 0.900416C7.28297 0.953395 7.31544 1.00144 7.35633 1.04176C7.39723 1.08208 7.44573 1.11387 7.49901 1.13528C7.5523 1.15669 7.60931 1.1673 7.66673 1.16649H9.22064L4.76035 5.62678C4.71876 5.66671 4.68556 5.71453 4.66269 5.76746C4.63981 5.82038 4.62773 5.87733 4.62714 5.93498C4.62655 5.99263 4.63748 6.04982 4.65927 6.1032C4.68106 6.15658 4.71328 6.20507 4.75405 6.24584C4.79482 6.28661 4.84331 6.31883 4.89669 6.34062C4.95007 6.36241 5.00725 6.37334 5.06491 6.37275C5.12256 6.37216 5.17951 6.36008 5.23243 6.3372C5.28536 6.31433 5.33318 6.28113 5.37311 6.23954L9.8334 1.77925V3.33316C9.83259 3.39058 9.84319 3.44759 9.86461 3.50088C9.88602 3.55416 9.91781 3.60266 9.95813 3.64355C9.99845 3.68445 10.0465 3.71692 10.0995 3.73908C10.1524 3.76125 10.2093 3.77266 10.2667 3.77266C10.3242 3.77266 10.381 3.76125 10.434 3.73908C10.487 3.71692 10.535 3.68445 10.5753 3.64355C10.6157 3.60266 10.6474 3.55416 10.6689 3.50088C10.6903 3.44759 10.7009 3.39058 10.7001 3.33316V0.788169C10.7087 0.72578 10.7036 0.662259 10.6852 0.602031C10.6668 0.541802 10.6355 0.486312 10.5934 0.439425C10.5513 0.392538 10.4996 0.35538 10.4417 0.33054C10.3838 0.3057 10.3212 0.293773 10.2583 0.295591ZM1.60007 2.03316C1.1264 2.03316 0.733398 2.42616 0.733398 2.89982V9.39982C0.733398 9.87348 1.1264 10.2665 1.60007 10.2665H8.10007C8.57373 10.2665 8.96673 9.87348 8.96673 9.39982V5.06649V3.9493L8.10007 4.81597V5.93316V9.39982H1.60007V2.89982H5.06673H5.9334H6.18392L7.05059 2.03316H5.9334H5.06673H1.60007Z" fill="inherit" fill-opacity="0.8"/>
<path d="M10.21 0.299822V1.29982H10.2818L10.3529 1.28956L10.21 0.299822ZM7.66673 0.299822L7.65259 1.29982H7.66673V0.299822ZM7.66673 1.16649V0.166389L7.65259 0.166589L7.66673 1.16649ZM9.22064 1.16649L9.92774 1.8736L11.6349 0.166489H9.22064V1.16649ZM4.76035 5.62678L5.45292 6.34813L5.46026 6.34108L5.46746 6.33388L4.76035 5.62678ZM5.37311 6.23954L4.66601 5.53243L4.65881 5.53963L4.65176 5.54697L5.37311 6.23954ZM9.8334 1.77925H10.8334V-0.634964L9.12629 1.07214L9.8334 1.77925ZM9.8334 3.33316L10.8334 3.3473V3.33316H9.8334ZM10.7001 3.33316H9.69997L9.70016 3.3473L10.7001 3.33316ZM10.7001 0.788169L9.7095 0.651147L9.70007 0.719334V0.788169H10.7001ZM8.96673 3.9493H9.96673V1.53509L8.25962 3.2422L8.96673 3.9493ZM8.10007 4.81597L7.39296 4.10886L7.10007 4.40176V4.81597H8.10007ZM8.10007 9.39982V10.3998H9.10007V9.39982H8.10007ZM1.60007 9.39982H0.600065V10.3998H1.60007V9.39982ZM1.60007 2.89982V1.89982H0.600065V2.89982H1.60007ZM6.18392 2.89982V3.89982H6.59813L6.89103 3.60693L6.18392 2.89982ZM7.05059 2.03316L7.75769 2.74026L9.4648 1.03316H7.05059V2.03316ZM10.2267 -0.70391C10.1733 -0.702222 10.12 -0.69755 10.0671 -0.689914L10.3529 1.28956C10.332 1.29258 10.311 1.29442 10.2899 1.29509L10.2267 -0.70391ZM10.21 -0.700178H7.66673V1.29982H10.21V-0.700178ZM7.68087 -0.700078C7.49095 -0.702763 7.30239 -0.667676 7.12615 -0.596855L7.87188 1.25892C7.80221 1.28691 7.72767 1.30078 7.65259 1.29972L7.68087 -0.700078ZM7.12615 -0.596855C6.94991 -0.526034 6.7895 -0.420892 6.65424 -0.287536L8.05842 1.13664C8.00495 1.18936 7.94154 1.23092 7.87188 1.25892L7.12615 -0.596855ZM6.65424 -0.287536C6.51899 -0.15418 6.41159 0.00472629 6.33828 0.179948L8.18332 0.951843C8.15435 1.02111 8.11189 1.08393 8.05842 1.13664L6.65424 -0.287536ZM6.33828 0.179948C6.26498 0.355175 6.22723 0.543221 6.22723 0.733156H8.22723C8.22723 0.808236 8.21231 0.882572 8.18332 0.951843L6.33828 0.179948ZM6.22723 0.733156C6.22723 0.923091 6.26498 1.11114 6.33828 1.28636L8.18332 0.514469C8.21231 0.58374 8.22723 0.658076 8.22723 0.733156H6.22723ZM6.33828 1.28636C6.41159 1.46159 6.51899 1.62049 6.65424 1.75385L8.05842 0.32967C8.11189 0.382387 8.15435 0.445204 8.18332 0.514469L6.33828 1.28636ZM6.65424 1.75385C6.7895 1.8872 6.94991 1.99235 7.12615 2.06317L7.87188 0.207394C7.94154 0.235389 8.00495 0.276952 8.05842 0.32967L6.65424 1.75385ZM7.12615 2.06317C7.30239 2.13399 7.49095 2.16908 7.68087 2.16639L7.65259 0.166589C7.72767 0.165528 7.80221 0.179398 7.87188 0.207394L7.12615 2.06317ZM7.66673 2.16649H9.22064V0.166489H7.66673V2.16649ZM8.51353 0.459383L4.05324 4.91967L5.46746 6.33388L9.92774 1.8736L8.51353 0.459383ZM4.06778 4.90542C3.93023 5.03749 3.82041 5.19568 3.74476 5.37071L5.58062 6.1642C5.55071 6.23339 5.5073 6.29592 5.45292 6.34813L4.06778 4.90542ZM3.74476 5.37071C3.6691 5.54575 3.62913 5.73413 3.62719 5.92481L5.62709 5.94516C5.62632 6.02054 5.61052 6.095 5.58062 6.1642L3.74476 5.37071ZM3.62719 5.92481C3.62525 6.11548 3.66138 6.30463 3.73345 6.48118L5.58508 5.72522C5.61358 5.79501 5.62786 5.86978 5.62709 5.94516L3.62719 5.92481ZM3.73345 6.48118C3.80553 6.65772 3.91211 6.81811 4.04694 6.95294L5.46116 5.53873C5.51446 5.59203 5.55659 5.65544 5.58508 5.72522L3.73345 6.48118ZM4.04694 6.95294C4.18178 7.08779 4.34217 7.19436 4.51871 7.26644L5.27467 5.41481C5.34445 5.4433 5.40785 5.48543 5.46116 5.53873L4.04694 6.95294ZM4.51871 7.26644C4.69525 7.33851 4.88439 7.37464 5.07508 7.3727L5.05473 5.3728C5.13011 5.37203 5.20489 5.38632 5.27467 5.41481L4.51871 7.26644ZM5.07508 7.3727C5.26577 7.37076 5.45414 7.33079 5.62918 7.25513L4.83569 5.41927C4.90488 5.38937 4.97935 5.37357 5.05473 5.3728L5.07508 7.3727ZM5.62918 7.25513C5.80421 7.17948 5.9624 7.06966 6.09446 6.93211L4.65176 5.54697C4.70397 5.49259 4.7665 5.44918 4.83569 5.41927L5.62918 7.25513ZM6.08022 6.94664L10.5405 2.48636L9.12629 1.07214L4.66601 5.53243L6.08022 6.94664ZM8.8334 1.77925V3.33316H10.8334V1.77925H8.8334ZM8.8335 3.31902C8.83081 3.50894 8.8659 3.6975 8.93672 3.87374L10.7925 3.12801C10.8205 3.19768 10.8344 3.27222 10.8333 3.3473L8.8335 3.31902ZM8.93672 3.87374C9.00754 4.04998 9.11268 4.21039 9.24604 4.34564L10.6702 2.94146C10.7229 2.99493 10.7645 3.05834 10.7925 3.12801L8.93672 3.87374ZM9.24604 4.34564C9.37939 4.4809 9.5383 4.5883 9.71352 4.6616L10.4854 2.81656C10.5547 2.84554 10.6175 2.888 10.6702 2.94146L9.24604 4.34564ZM9.71352 4.6616C9.88875 4.73491 10.0768 4.77266 10.2667 4.77266V2.77266C10.3418 2.77266 10.4162 2.78758 10.4854 2.81656L9.71352 4.6616ZM10.2667 4.77266C10.4567 4.77266 10.6447 4.73491 10.8199 4.6616L10.048 2.81656C10.1173 2.78758 10.1916 2.77266 10.2667 2.77266V4.77266ZM10.8199 4.6616C10.9952 4.5883 11.1541 4.4809 11.2874 4.34564L9.86325 2.94146C9.91596 2.888 9.97878 2.84554 10.048 2.81656L10.8199 4.6616ZM11.2874 4.34564C11.4208 4.21039 11.5259 4.04998 11.5967 3.87374L9.74097 3.12801C9.76896 3.05834 9.81053 2.99493 9.86325 2.94146L11.2874 4.34564ZM11.5967 3.87374C11.6676 3.6975 11.7027 3.50894 11.7 3.31902L9.70016 3.3473C9.6991 3.27222 9.71297 3.19768 9.74097 3.12801L11.5967 3.87374ZM11.7001 3.33316V0.788169H9.70007V3.33316H11.7001ZM11.6906 0.925191C11.7192 0.71884 11.7024 0.508749 11.6415 0.309545L9.72893 0.894516C9.70485 0.81577 9.69821 0.73272 9.7095 0.651147L11.6906 0.925191ZM11.6415 0.309545C11.5805 0.110342 11.4769 -0.0731889 11.3378 -0.228267L9.84896 1.10712C9.79398 1.04581 9.75302 0.973262 9.72893 0.894516L11.6415 0.309545ZM11.3378 -0.228267C11.1987 -0.383342 11.0275 -0.506239 10.8361 -0.588399L10.0473 1.24948C9.97163 1.217 9.90394 1.16842 9.84896 1.10712L11.3378 -0.228267ZM10.8361 -0.588399C10.6447 -0.670559 10.4376 -0.710005 10.2294 -0.703993L10.2871 1.29517C10.2048 1.29755 10.123 1.28196 10.0473 1.24948L10.8361 -0.588399ZM1.60007 1.03316C0.57412 1.03316 -0.266602 1.87388 -0.266602 2.89982H1.7334C1.7334 2.9445 1.71445 2.97774 1.69622 2.99597C1.67798 3.01421 1.64474 3.03316 1.60007 3.03316V1.03316ZM-0.266602 2.89982V9.39982H1.7334V2.89982H-0.266602ZM-0.266602 9.39982C-0.266602 10.4258 0.57412 11.2665 1.60007 11.2665V9.26649C1.64474 9.26649 1.67798 9.28544 1.69622 9.30367C1.71445 9.32191 1.7334 9.35515 1.7334 9.39982H-0.266602ZM1.60007 11.2665H8.10007V9.26649H1.60007V11.2665ZM8.10007 11.2665C9.12601 11.2665 9.96673 10.4258 9.96673 9.39982H7.96673C7.96673 9.35515 7.98568 9.32191 8.00391 9.30367C8.02215 9.28544 8.05539 9.26649 8.10007 9.26649V11.2665ZM9.96673 9.39982V5.06649H7.96673V9.39982H9.96673ZM9.96673 5.06649V3.9493H7.96673V5.06649H9.96673ZM8.25962 3.2422L7.39296 4.10886L8.80717 5.52308L9.67384 4.65641L8.25962 3.2422ZM7.10007 4.81597V5.93316H9.10007V4.81597H7.10007ZM7.10007 5.93316V9.39982H9.10007V5.93316H7.10007ZM8.10007 8.39982H1.60007V10.3998H8.10007V8.39982ZM2.60007 9.39982V2.89982H0.600065V9.39982H2.60007ZM1.60007 3.89982H5.06673V1.89982H1.60007V3.89982ZM5.06673 3.89982H5.9334V1.89982H5.06673V3.89982ZM5.9334 3.89982H6.18392V1.89982H5.9334V3.89982ZM6.89103 3.60693L7.75769 2.74026L6.34348 1.32605L5.47681 2.19272L6.89103 3.60693ZM7.05059 1.03316H5.9334V3.03316H7.05059V1.03316ZM5.9334 1.03316H5.06673V3.03316H5.9334V1.03316ZM5.06673 1.03316H1.60007V3.03316H5.06673V1.03316Z" fill="inherit" fill-opacity="0.8" mask="url(#path-1-inside-1_4567_9698)"/>
</svg>

<svg width="11" height="11" fill="inherit" xmlns="http://www.w3.org/2000/svg"><mask id="a" fill="inherit"><path d="M10.258.296A.434.434 0 0 0 10.21.3H7.667a.433.433 0 1 0 0 .866H9.22l-4.46 4.46a.433.433 0 1 0 .612.614l4.46-4.46v1.553a.433.433 0 1 0 .867 0V.788a.434.434 0 0 0-.442-.492zM1.6 2.033a.873.873 0 0 0-.867.867v6.5c0 .473.393.867.867.867h6.5a.873.873 0 0 0 .867-.867V3.949l-.867.867V9.4H1.6V2.9h4.583l.868-.867H1.6z"/></mask><path d="M10.258.296A.434.434 0 0 0 10.21.3H7.667a.433.433 0 1 0 0 .866H9.22l-4.46 4.46a.433.433 0 1 0 .612.614l4.46-4.46v1.553a.433.433 0 1 0 .867 0V.788a.434.434 0 0 0-.442-.492zM1.6 2.033a.873.873 0 0 0-.867.867v6.5c0 .473.393.867.867.867h6.5a.873.873 0 0 0 .867-.867V3.949l-.867.867V9.4H1.6V2.9h4.583l.868-.867H1.6z" fill-opacity=".8"/><path d="M10.21.3v1h.072l.07-.01L10.21.3zM7.667.3l-.014 1h.014v-1zm0 .866v-1h-.014l.014 1zm1.554 0 .707.708L11.635.166H9.22v1zm-4.46 4.46.692.722.007-.007.007-.007-.707-.707zm.612.614-.707-.708-.007.008-.007.007.721.693zm4.46-4.46h1V-.636L9.126 1.072l.707.707zm0 1.553 1 .014v-.014h-1zm.867 0h-1v.014l1-.014zm0-2.545L9.71.651 9.7.72v.07h1zM8.967 3.95h1V1.535L8.26 3.242l.707.707zm-.867.867-.707-.707-.293.293v.414h1zm0 4.584v1h1v-1h-1zm-6.5 0h-1v1h1v-1zm0-6.5v-1h-1v1h1zm4.584 0v1h.414l.293-.293-.707-.707zm.867-.867.707.707 1.707-1.707H7.05v1zm3.176-2.737a1.435 1.435 0 0 0-.16.014l.286 1.98a.566.566 0 0 1-.063.005l-.063-1.999zM10.21-.7H7.667v2h2.543v-2zm-2.53 0a1.433 1.433 0 0 0-.554.103l.746 1.856a.567.567 0 0 1-.22.04l.029-2zm-.554.103c-.176.071-.337.176-.472.31l1.404 1.424a.567.567 0 0 1-.186.122L7.126-.597zm-.472.31a1.434 1.434 0 0 0-.316.467l1.845.772a.566.566 0 0 1-.125.185L6.654-.288zM6.338.18a1.434 1.434 0 0 0-.11.553h2c0 .075-.016.15-.045.219L6.338.18zm-.11.553c0 .19.037.378.11.553L8.183.514c.03.07.044.144.044.22h-2zm.11.553c.074.176.181.334.316.468L8.058.33a.566.566 0 0 1 .125.184l-1.845.772zm.316.468c.136.133.296.238.472.31L7.872.206c.07.028.133.07.186.123L6.654 1.754zm.472.31c.176.07.365.105.555.102l-.028-2a.567.567 0 0 1 .219.041l-.746 1.856zm.54.102h1.555v-2H7.667v2zM8.515.46l-4.46 4.46 1.413 1.415 4.46-4.46L8.515.459zM4.068 4.905c-.138.132-.248.29-.323.466l1.836.793a.567.567 0 0 1-.128.184L4.068 4.905zm-.323.466a1.433 1.433 0 0 0-.118.554l2 .02c0 .076-.016.15-.046.22L3.745 5.37zm-.118.554c-.002.19.034.38.106.556l1.852-.756c.029.07.043.145.042.22l-2-.02zm.106.556c.073.177.18.337.314.472L5.46 5.539a.567.567 0 0 1 .124.186l-1.852.756zm.314.472c.135.135.295.241.472.313l.756-1.851c.07.028.133.07.186.124L4.047 6.953zm.472.313c.176.073.365.109.556.107l-.02-2c.075-.001.15.013.22.042l-.756 1.851zm.556.107c.19-.002.38-.042.554-.118L4.836 5.42a.567.567 0 0 1 .219-.046l.02 2zm.554-.118c.175-.076.333-.185.465-.323L4.652 5.547a.567.567 0 0 1 .184-.128l.793 1.836zm.451-.308 4.46-4.46-1.414-1.415-4.46 4.46L6.08 6.947zm2.753-5.168v1.554h2V1.78h-2zm0 1.54c-.002.19.033.378.104.555l1.856-.746c.027.07.041.144.04.22l-2-.029zm.104.555c.07.176.176.336.309.472L10.67 2.94a.567.567 0 0 1 .123.187l-1.856.746zm.309.472c.133.135.292.242.468.316l.771-1.845c.07.029.133.071.185.124L9.246 4.346zm.468.316c.175.073.363.11.553.11v-2c.075 0 .15.016.218.045l-.771 1.845zm.553.11c.19 0 .378-.037.553-.11l-.772-1.845a.567.567 0 0 1 .219-.044v2zm.553-.11c.175-.074.334-.181.467-.316L9.863 2.94a.567.567 0 0 1 .185-.124l.772 1.845zm.467-.316c.134-.136.239-.296.31-.472L9.74 3.128a.567.567 0 0 1 .122-.187l1.424 1.405zm.31-.472c.07-.177.106-.365.103-.555l-2 .028a.567.567 0 0 1 .041-.219l1.856.746zm.103-.54V.787h-2v2.545h2zM11.69.924a1.433 1.433 0 0 0-.048-.615L9.729.895a.567.567 0 0 1-.02-.244l1.982.274zM11.643.31a1.434 1.434 0 0 0-.304-.538L9.849 1.107a.567.567 0 0 1-.12-.212L11.642.31zm-.304-.538a1.434 1.434 0 0 0-.502-.36l-.789 1.837a.567.567 0 0 1-.198-.142l1.489-1.335zm-.502-.36a1.433 1.433 0 0 0-.607-.116l.058 2a.567.567 0 0 1-.24-.047l.79-1.837zM1.6 1.033c-1.026 0-1.867.84-1.867 1.867h2a.136.136 0 0 1-.037.096.136.136 0 0 1-.096.037v-2zM-.267 2.9v6.5h2V2.9h-2zm0 6.5c0 1.026.841 1.867 1.867 1.867v-2c.045 0 .078.018.096.037a.136.136 0 0 1 .037.096h-2zM1.6 11.267h6.5v-2H1.6v2zm6.5 0c1.026 0 1.867-.841 1.867-1.867h-2c0-.045.019-.078.037-.096a.136.136 0 0 1 .096-.038v2zM9.967 9.4V5.066h-2V9.4h2zm0-4.334V3.95h-2v1.117h2zM8.26 3.242l-.867.867 1.414 1.414.867-.867L8.26 3.242zM7.1 4.816v1.117h2V4.816h-2zm0 1.117V9.4h2V5.933h-2zm1 2.467H1.6v2h6.5v-2zm-5.5 1V2.9h-2v6.5h2zm-1-5.5h3.467v-2H1.6v2zm3.467 0h.866v-2h-.866v2zm.866 0h.25v-2h-.25v2zm.958-.293.867-.867-1.415-1.414-.866.867L6.89 3.607zm.16-2.574H5.933v2h1.118v-2zm-1.118 0h-.866v2h.866v-2zm-.866 0H1.6v2h3.467v-2z" fill-opacity=".8" mask="url(#a)"/></svg>
